X: 2208
T: LADY CHARLOTTE CAMPBELL
C: R. Mc Intosh
Q: "Strathspey."
R: Strathspey.
%R: strathspey
B: James Kerr "Merry Melodies" v.2 p.23 #208
Z: 2016 John Chambers <jc:trillian.mit.edu>
N: The two endings of the 2nd strain aren't the same length; not fixed.
M: C
L: 1/16
K: Bb
(FE) |\
vDF3F3uB EG3G2(cB) | vAc3f3ue db3Bf3 |\
DF3F3B EG3G2(cB) | ABc2 uF3ue dB3 B2 ::\
ua2 |\
vb3uBAa3 vb3uGFf3 |
ve3uc edcB Ac3 c3ua |\
[1 vb3vBua3uB vg3vBuf3uB | (ABc2) uF3ue dB3 B2 :|\
[2 (BA) | G3BF3B E3BD3B | (EFG2) (F3E) DB,3B,2 |]

%%sep 1 1 500
%%sep 1 1 500

